X:1
T:Aus tiefer Not (mel. 2, 3vv-1, LXXX)
T:Michael Praetorius
T:Aus tiefer Not (mel. 2, 3vv-1, LXXX)
C:Michael Praetorius
%%score [ 1 2 3 ]
L:1/8
Q:1/4=100
M:4/2
K:C
V:1 treble-8 nm="Tenor 1" snm="T 1"
V:2 treble-8 nm="Tenor 2" snm="T 2"
V:3 bass nm="Bass" snm="B"
V:1
 c4 B2 c2 d4 d4 | c8 d8 | e8 f8 | e4 d4 c8 | B4 c4 d4 e4 | d8 e8 :| z4 c4 d4 f4 | e8 c8 | %8
w: 1.Aus tie- fer Not schrei|ich zu|dir, Herr|Gott, er- hör|_ mein Ru- *|* fen.|Denn so du|willt das|
w: Dein gnä- dig Oh- ren|kehr zu|mir, und|mei- ner Bitt|_ sie öf- *|* fen.|||
w: 3.Dar- um auf Gott will|hof- fen|ich, auf|mein Ver- dienst|_ nicht bau- *|* en.|Die mir zu-|sagt sein|
w: Auf ihn mein Herz soll|las- sen|sich, und|sei- ner Gü-|* te trau- *|* en.|||
 d4 B4 A8- | A4 B4 G2 G2 d4 | e8 f4 d4 | c8 g4 e4 | f4 d8 c4 | B2 c2 d4 c4 z2 g2 | %14
w: se- hen an,|_ was Sünd und Un-|recht ist ge-|tan, wer kann,|Herr, für _|_ dir blei- ben, wer|
w: ||||||
w: wer- tes Wort,|_ das ist mein Trost|und treu- er|Hort. Des will|ich all- *|* zeit har- ren, Des|
w: ||||||
 e2 f2 d3 c B4 c4 | d16 | e16 |] %17
w: kann, Herr, für _ _ dir|blei-|ben?|
w: |||
w: will ich all- * * zeit|har-|ren.|
w: |||
V:2
 e4 d2 c2 B8 | G4 A8 B4 | c12 d4- | d2 c4 B2 A8 | G4 A4 B2 G2 c4- | c4 B4 c8 :| z4 A4 A2 A2 d4- | %7
w: 1.Aus tie- fer Not|schrei ich zu|dir, Herr|_ Gott, er- hör|_ mein Ru- * *|* * fen.|Denn so du willt|
w: Dein gnä- dig Oh-|ren kehr zu|mir, und|_ mei- ner Bitt|_ sie öf- * *|* * fen.||
w: 3.Dar- um auf Gott|will hof- fen|ich, auf|_ mein Ver- dienst|_ nicht bau- * *|* * en.|Die mir zu- sagt|
w: Auf ihn mein Herz|soll las- sen|sich, und|_ sei- ner Gü-|* te trau- * *|* * en.||
 d4 c2 B2 A2 G2 F2 E2 | D4 G8 ^F4 | ^F4 G4 E=F G4 G2 | G4 c4 A4 G4 | A8 B4 c4 | A4 B8 A2 G2 | %13
w: _ das _ _ _ _ _|_ se- hen|an, was Sünd _ _ und|Un- recht ist ge-|tan, wer kann,|Herr, für _ _|
w: ||||||
w: _ sein _ _ _ _ _|_ wer- tes|Wort, das ist _ _ mein|Trost und treu- er|Hort. Des will|ich all- * *|
w: ||||||
 F2 E2 F4 E4 z2 D2 | G2 A2 B3 c d4 c4 | c4 B2 A2 B8 | c16 |] %17
w: _ dir blei- ben, wer|kann, Herr, für _ _ dir|blei- * * *|ben?|
w: ||||
w: * zeit har- ren, Des|will ich all- * * zeit|har- * * *|ren.|
w: ||||
V:3
 C,4 G,,2 A,,2 G,,4 G,4 | E,4 F,2 E,2 D,4 D,4 | C,8 F,,8 | G,,4 G,,4 A,,2 B,,2 C,2 D,2 | %4
w: 1.Aus tie- fer Not schrei|ich _ _ _ zu|dir, Herr|Gott, er- hör _ _ _|
w: Dein gnä- dig Oh- ren|kehr _ _ _ zu|mir, und|mei- ner Bitt _ _ _|
w: 3.Dar- um auf Gott will|hof- * * * fen|ich, auf|mein Ver- dienst _ _ _|
w: Auf ihn mein Herz soll|las- * * * sen|sich, und|sei- ner Gü- * * *|
 E,4 A,4 G,8- | G,8 C,8 :| z4 F,4 D,4 D,4 | A,,12 A,,4 | B,,4 G,,4 D,8- | D,4 G,,4 C,4 B,,4 | %10
w: _ mein Ru-|* fen.|Denn so du|willt das|se- hen an,|_ was Sünd und|
w: _ sie öf-|* fen.|||||
w: _ nicht bau-|* en.|Die mir zu-|sagt sein|wer- tes Wort,|_ das ist mein|
w: * te trau-|* en.|||||
 C,6 A,,2 D,4 B,,4 | A,,8 E,4 A,4 | D,4 G,2 F,E, D,4 E,4 | D,2 C,4 B,,2 C,4 z2 B,,2 | %14
w: Un- recht ist ge-|tan, wer kann,|Herr, für _ _ _ dir|blei- * * ben, wer|
w: ||||
w: Trost und treu- er|Hort. Des will|ich all- * * * zeit|har- * * ren, Des|
w: ||||
 C,2 F,,2 G,,8 E,,4 | F,,8 G,,8 | C,16 |] %17
w: kann, Herr, für dir|blei- *|ben?|
w: |||
w: will ich all- zeit|har- *|ren.|
w: |||

